!!!PDT:	1923
!!!LANG: Non-Tone
!!!LING_GROUP: Siouan
!!!REG: Dakotas
!!!COM: Anon.
!!!OTL: The Hated Enemy
!!!ODT: <1918//
!!!MPN: Pau [Wounded Face]
!!!MLC: Fort Berthold Reservation, North Dakota, United States of America
!! Song was recorded during either the summer of 1912, 1915, or 1918.
!!!AGN: monody
!!!SOCIAL_FUNCTION: Mandan and Hidatsa War Songs
!!!AMT: irregular
!!!RWG: Transcribed pitches, durations, and meters are only approximate.
!! Drum not recorded.
**kern
*ICvox
*Imale
*clefF4
*k[b-e-a-]
*M3/4
*MM69
=1-
8.f
16g
8f
8e-
4c
=2
(28e-
28c
28e-
28c
28e-
28c
28e-)
8c
8B-
4A-
=3
(28c
28A-
28e-
28c
28e-
28c
28e-)
8c
8B-
16B-
8.A-
*M2/4
=4
8F
8F
8.F
16G
=5
8F
8E-
4C
=6
8F
16F
16E-
8F
32F
32E-
32F
32E-
=7
4C
8.C
16C
=8
4C
[4C
=9
2C]
*M3/4
=10
(28e-
28c
28e-
28c
28e-
28c
28e-)
8c
8B-
8.A-
16A-
=11
4c
16c
16c
8B-
16A-
16A-
8F
=12
(16.A-
32F)
8F
(16.B-
32F)
8F
(24F
24F
24E-)
4C
*M2/4
=13
8f
16F
16E-
8F
32F
32E-
32F
32E-
=14
4C
8.C
16C
=15
2C
==
*-
!!!CNT: Mandan
!!!TXO: Mandan
!!!OCY: United States
!!!OCL: Frances Densmore
!!!YOR: Frances Densmore, "Mandan and Hidatsa Music",
!!!YOR: Bulletin 80, page 166, No. 97
!!!PPR: Smithsonian Institution, Bureau of American Ethnology
!!!PPR: Government Printing Office
!!!PDT: 1923
!!!PPP: Washington, DC, United States of America
!!!YEC: Electronic Copyright 2000 David Huron
!!!YER: August 2000
!!!YEN: United States of America
!!!ENC: David Huron
!!!RDT: August 18, 2000
!!!EEV: Release 1.0
!!!AIN: tom, vox
